assets/svg/send-gift.svg

<?xml version="1.0" encoding="UTF-8"?>
<svg width="1000px" height="1000px" viewBox="0 0 1000 1000" version="1.1" xmlns="http://www.w3.org/2000/svg" xmlns:xlink="http://www.w3.org/1999/xlink">
    <!-- Generator: sketchtool 52.4 (67378) - http://www.bohemiancoding.com/sketch -->
    <title>send-gift</title>
    <desc>Created with sketchtool.</desc>
    <g id="新版图标" stroke="none" stroke-width="1" fill="none" fill-rule="evenodd">
        <g id="send-gift" fill="#323233">
            <g id="圆角-已发货-面">
                <path d="M111.111111,250 L888.888889,250 L888.888889,887.888889 C888.888889,888.441174 888.441174,888.888889 887.888889,888.888889 L112.111111,888.888889 C111.558826,888.888889 111.111111,888.441174 111.111111,887.888889 L111.111111,250 Z M333.333333,277.777778 L333.333333,611.111111 L500,556.110713 L666.666667,611.111111 L666.666667,277.777778 L333.333333,277.777778 Z M111.111111,222.222222 L151.311489,141.821467 C160.722156,123.000132 179.958996,111.111111 201.001888,111.111111 L798.998112,111.111111 C820.041004,111.111111 839.277844,123.000132 848.688511,141.821467 L888.888889,222.222222 L111.111111,222.222222 Z" id="Combined-Shape"></path>
            </g>
        </g>
    </g>
</svg>

<svg width="1000" height="1000" xmlns="http://www.w3.org/2000/svg"><path d="M111.111 250H888.89v637.889a1 1 0 0 1-1 1H112.11a1 1 0 0 1-1-1V250zm222.222 27.778V611.11l166.667-55 166.667 55V277.778H333.333zm-222.222-55.556l40.2-80.4a55.556 55.556 0 0 1 49.69-30.71h597.997a55.556 55.556 0 0 1 49.69 30.71l40.2 80.4H111.112z" fill="#323233" fill-rule="evenodd"/></svg>
